src/images_karasa_jaga_svg/cmd/32/symbolshapes.quad-bevel.svg

<svg height="32" viewBox="0 0 32 32" width="32" xmlns="http://www.w3.org/2000/svg" xmlns:xlink="http://www.w3.org/1999/xlink"><linearGradient id="a" gradientUnits="userSpaceOnUse" x1="56.515038" x2="58.78294" xlink:href="#c" y1="128" y2="0"/><linearGradient id="b" gradientUnits="userSpaceOnUse" x1="56.608021" x2="52.338943" xlink:href="#c" y1="128" y2="0"/><linearGradient id="c"><stop offset="0" stop-color="#fff"/><stop offset=".53340602" stop-color="#fff"/><stop offset=".83333331" stop-color="#f1f1f1"/><stop offset=".89999998" stop-color="#eaeaea"/><stop offset="1" stop-color="#dfdfdf"/></linearGradient><linearGradient id="d"><stop offset="0" stop-color="#7c9fcf"/><stop offset=".5" stop-color="#7c9ece"/><stop offset="1" stop-color="#7b9dcf"/></linearGradient><linearGradient id="e" gradientUnits="userSpaceOnUse" x1="27.960938" x2="100.03906" xlink:href="#d" y1="64" y2="64"/><linearGradient id="f" gradientUnits="userSpaceOnUse" x1="56.515038" x2="58.78294" xlink:href="#d" y1="128" y2="0"/><g transform="scale(.25)"><path d="m12 7.9902344a4.00955 4.00955 0 0 0 -4.0097656 4.0097656v104a4.00955 4.00955 0 0 0 4.0097656 4.00977h104a4.00955 4.00955 0 0 0 4.00977-4.00977v-104a4.00955 4.00955 0 0 0 -4.00977-4.0097656z" fill="url(#f)"/><path d="m12 12h104v104h-104z" fill="url(#a)"/><path d="m32 27.960938a4.040321 4.040321 0 0 0 -4.039062 4.039062v64a4.040321 4.040321 0 0 0 4.039062 4.03906h64a4.040321 4.040321 0 0 0 4.03906-4.03906v-64a4.040321 4.040321 0 0 0 -4.03906-4.039062z" fill="url(#e)" transform="matrix(1.1099068 0 0 1.1099068 -7.034035 -7.034035)"/><path d="m28 28h72v72h-72z" fill="url(#b)"/><g fill="none" stroke="#507dbe" stroke-opacity=".729412" stroke-width="4"><path d="m28 28-15.674133-15.674133"/><path d="m100 28 15.67413-15.674133"/><path d="m28 100-15.674133 15.67413"/><path d="m115.67413 115.67413-15.67413-15.67413"/></g></g></svg>

<?xml version="1.0" encoding="UTF-8" standalone="no"?>
<!-- Created with Inkscape (http://www.inkscape.org/) -->

<svg
   xmlns:dc="http://purl.org/dc/elements/1.1/"
   xmlns:cc="http://creativecommons.org/ns#"
   xmlns:rdf="http://www.w3.org/1999/02/22-rdf-syntax-ns#"
   xmlns:svg="http://www.w3.org/2000/svg"
   xmlns="http://www.w3.org/2000/svg"
   xmlns:xlink="http://www.w3.org/1999/xlink"
   xmlns:sodipodi="http://sodipodi.sourceforge.net/DTD/sodipodi-0.dtd"
   xmlns:inkscape="http://www.inkscape.org/namespaces/inkscape"
   version="1.1"
   id="svg2"
   width="128"
   height="128"
   viewBox="0 0 128 128"
   sodipodi:docname="symbolshapes.quad-bevel.svg"
   inkscape:export-filename="/home/rizmut/Dokumen/Rizmut/Github/libreoffice-style-karasa-jaga/build/images_karasa_jaga/cmd/32/symbolshapes.quad-bevel.png"
   inkscape:export-xdpi="24"
   inkscape:export-ydpi="24"
   inkscape:version="0.92.3 (unknown)">
  <metadata
     id="metadata8">
    <rdf:RDF>
      <cc:Work
         rdf:about="">
        <dc:format>image/svg+xml</dc:format>
        <dc:type
           rdf:resource="http://purl.org/dc/dcmitype/StillImage" />
        <dc:title></dc:title>
      </cc:Work>
    </rdf:RDF>
  </metadata>
  <defs
     id="defs6">
    <linearGradient
       inkscape:collect="always"
       xlink:href="#linearGradient3369"
       id="linearGradient3009"
       x1="56.515038"
       y1="128"
       x2="58.78294"
       y2="0"
       gradientUnits="userSpaceOnUse" />
    <linearGradient
       inkscape:collect="always"
       xlink:href="#linearGradient3369"
       id="linearGradient3013"
       gradientUnits="userSpaceOnUse"
       x1="53.22953"
       y1="157.2511"
       x2="47.009277"
       y2="-29.251102"
       gradientTransform="matrix(0.68631896,0,0,0.68631896,20.075586,20.075586)" />
    <linearGradient
       id="linearGradient3369">
      <stop
         id="stop3372"
         offset="0"
         style="stop-color:#ffffff;stop-opacity:1;" />
      <stop
         style="stop-color:#ffffff;stop-opacity:1;"
         offset="0.53340602"
         id="stop3374" />
      <stop
         style="stop-color:#f1f1f1;stop-opacity:1;"
         offset="0.83333331"
         id="stop3376" />
      <stop
         id="stop3378"
         offset="0.89999998"
         style="stop-color:#eaeaea;stop-opacity:1;" />
      <stop
         id="stop3384"
         offset="1"
         style="stop-color:#dfdfdf;stop-opacity:1;" />
    </linearGradient>
    <linearGradient
       id="linearGradient7422">
      <stop
         style="stop-color:#7c9fcf;stop-opacity:1"
         offset="0"
         id="stop7424" />
      <stop
         id="stop5348"
         offset="0.5"
         style="stop-color:#7c9ece;stop-opacity:1" />
      <stop
         id="stop7426"
         offset="1"
         style="stop-color:#7b9dcf;stop-opacity:1" />
    </linearGradient>
    <linearGradient
       inkscape:collect="always"
       xlink:href="#linearGradient7422"
       id="linearGradient3195"
       x1="27.960938"
       y1="64"
       x2="100.03906"
       y2="64"
       gradientUnits="userSpaceOnUse" />
    <linearGradient
       inkscape:collect="always"
       xlink:href="#linearGradient7422"
       id="linearGradient3199"
       gradientUnits="userSpaceOnUse"
       x1="56.515038"
       y1="128"
       x2="58.78294"
       y2="0" />
  </defs>
  <sodipodi:namedview
     pagecolor="#ffffff"
     bordercolor="#666666"
     borderopacity="1"
     objecttolerance="10"
     gridtolerance="10"
     guidetolerance="10"
     inkscape:pageopacity="0"
     inkscape:pageshadow="2"
     inkscape:window-width="1366"
     inkscape:window-height="706"
     id="namedview4"
     showgrid="true"
     inkscape:snap-page="true"
     inkscape:snap-global="true"
     inkscape:zoom="2.4494288"
     inkscape:cx="54.451392"
     inkscape:cy="112.94047"
     inkscape:window-x="0"
     inkscape:window-y="0"
     inkscape:window-maximized="1"
     inkscape:current-layer="svg2">
    <inkscape:grid
       type="xygrid"
       id="grid837"
       spacingx="4"
       spacingy="4"
       empspacing="1" />
  </sodipodi:namedview>
  <path
     sodipodi:type="inkscape:offset"
     inkscape:radius="4.0091491"
     inkscape:original="M 12 12 L 12 116 L 116 116 L 116 12 L 12 12 z "
     style="opacity:1;fill:url(#linearGradient3199);fill-opacity:1;stroke:none;stroke-width:4;stroke-linecap:square;stroke-linejoin:bevel;stroke-miterlimit:4;stroke-dasharray:none;stroke-dashoffset:0;stroke-opacity:0.72941176"
     id="rect3197"
     d="M 12,7.9902344 A 4.00955,4.00955 0 0 0 7.9902344,12 V 116 A 4.00955,4.00955 0 0 0 12,120.00977 H 116 A 4.00955,4.00955 0 0 0 120.00977,116 V 12 A 4.00955,4.00955 0 0 0 116,7.9902344 Z" />
  <rect
     style="opacity:1;fill:url(#linearGradient3009);fill-opacity:1;stroke:none;stroke-width:4;stroke-linecap:square;stroke-linejoin:bevel;stroke-miterlimit:4;stroke-dasharray:none;stroke-dashoffset:0;stroke-opacity:0.72941176"
     id="rect3001"
     width="104"
     height="104"
     x="12"
     y="12"
     rx="0"
     ry="0" />
  <path
     sodipodi:type="inkscape:offset"
     inkscape:radius="4.039917"
     inkscape:original="M 32 32 L 32 96 L 96 96 L 96 32 L 32 32 z "
     style="opacity:1;fill:url(#linearGradient3195);fill-opacity:1;stroke:none;stroke-width:4.48022985;stroke-linecap:square;stroke-linejoin:bevel;stroke-miterlimit:4;stroke-dasharray:none;stroke-dashoffset:0;stroke-opacity:0.72941176"
     id="rect2589"
     d="M 32,27.960938 A 4.040321,4.040321 0 0 0 27.960938,32 V 96 A 4.040321,4.040321 0 0 0 32,100.03906 H 96 A 4.040321,4.040321 0 0 0 100.03906,96 V 32 A 4.040321,4.040321 0 0 0 96,27.960938 Z"
     transform="matrix(1.1099068,0,0,1.1099068,-7.0340353,-7.0340353)" />
  <rect
     ry="0"
     rx="0"
     y="28"
     x="28"
     height="72"
     width="72"
     id="rect3011"
     style="opacity:1;fill:url(#linearGradient3013);fill-opacity:1;stroke:none;stroke-width:4.48022985;stroke-linecap:square;stroke-linejoin:bevel;stroke-miterlimit:4;stroke-dasharray:none;stroke-dashoffset:0;stroke-opacity:0.72941176" />
  <path
     style="fill:none;fill-rule:evenodd;stroke:#507dbe;stroke-width:4;stroke-linecap:butt;stroke-linejoin:miter;stroke-miterlimit:4;stroke-dasharray:none;stroke-opacity:0.72941176"
     d="M 28,28 12.325867,12.325867"
     id="path3015"
     inkscape:connector-curvature="0"
     sodipodi:nodetypes="cc" />
  <path
     style="fill:none;fill-rule:evenodd;stroke:#507dbe;stroke-width:4;stroke-linecap:butt;stroke-linejoin:miter;stroke-miterlimit:4;stroke-dasharray:none;stroke-opacity:0.72941176"
     d="M 100,28 115.67413,12.325867"
     id="path3017"
     inkscape:connector-curvature="0"
     sodipodi:nodetypes="cc" />
  <path
     style="fill:none;fill-rule:evenodd;stroke:#507dbe;stroke-width:4;stroke-linecap:butt;stroke-linejoin:miter;stroke-miterlimit:4;stroke-dasharray:none;stroke-opacity:0.72941176"
     d="M 28,100 12.325867,115.67413"
     id="path3019"
     inkscape:connector-curvature="0"
     sodipodi:nodetypes="cc" />
  <path
     style="fill:none;fill-rule:evenodd;stroke:#507dbe;stroke-width:4;stroke-linecap:butt;stroke-linejoin:miter;stroke-miterlimit:4;stroke-dasharray:none;stroke-opacity:0.72941176"
     d="M 115.67413,115.67413 100,100"
     id="path3021"
     inkscape:connector-curvature="0"
     sodipodi:nodetypes="cc" />
</svg>
